assets/symbols/mulberry/flag_palau.svg

<svg height="850.394" viewBox="0 0 850.394 850.394" width="850.394" xmlns="http://www.w3.org/2000/svg"><path d="m162.61 114.42v670.96h-39.49l-1.12-670.61c5.8 2.59 12.62 4.08 19.92 4.08 7.62 0 14.73-1.63 20.69-4.43z" fill="#c8c8c8"/><path d="m748.18 177.46v342.71h-579.62l-3.49-379.83h583.11zm-193.41 159.93c0-62.63-50.76-113.39-113.38-113.39-62.63 0-113.39 50.76-113.39 113.39 0 62.62 50.76 113.379 113.39 113.379 62.62.001 113.38-50.759 113.38-113.379z" fill="#a8d7f4"/><path d="m441.39 224c62.62 0 113.38 50.76 113.38 113.39 0 62.62-50.76 113.379-113.38 113.379-62.63.001-113.39-50.759-113.39-113.379 0-62.63 50.76-113.39 113.39-113.39z" fill="#fbed24"/><path d="m122 114.77c-10.99-4.89-18.33-13.72-18.33-23.8 0-15.4 17.13-27.88 38.25-27.88 21.13 0 38.26 12.48 38.26 27.88 0 9.84-7 18.49-17.57 23.45-5.96 2.8-13.07 4.43-20.69 4.43-7.3 0-14.12-1.49-19.92-4.08z" fill="#c8c8c8"/><g fill="none"><g stroke="#231f20"><path d="m165.07 140.34h583.11v379.83h-579.62m-46.56-405.4c-10.99-4.89-18.33-13.72-18.33-23.8 0-15.4 17.13-27.88 38.25-27.88 21.13 0 38.26 12.48 38.26 27.88 0 9.84-7 18.49-17.57 23.45-5.96 2.8-13.07 4.43-20.69 4.43-7.3 0-14.12-1.49-19.92-4.08z" stroke-width="21"/><path d="m122 114v.77l1.12 670.61m39.49-672.78v672.78" stroke-width="21"/><path d="m744.76 179.39 3.42-1.93 2.01-1.14m-195.42 161.07c0 62.62-50.76 113.379-113.38 113.379-62.63.001-113.39-50.759-113.39-113.379 0-62.63 50.76-113.39 113.39-113.39 62.62 0 113.38 50.76 113.38 113.39z" stroke-width="14"/></g><path d="m0 0h850.394v850.394h-850.394z"/></g></svg>

<svg xmlns="http://www.w3.org/2000/svg" width="850.394" height="850.394" viewBox="0 0 850.394 850.394" overflow="visible"><path d="M162.61 114.42v670.96h-39.49L122 114.77c5.8 2.59 12.62 4.08 19.92 4.08 7.62 0 14.73-1.63 20.69-4.43z" fill="#c8c8c8"/><path d="M748.18 177.46v342.71H168.56l-3.49-379.83h583.11v37.12zM554.77 337.39c0-62.63-50.76-113.39-113.38-113.39C378.76 224 328 274.76 328 337.39c0 62.62 50.76 113.379 113.39 113.379 62.62.001 113.38-50.759 113.38-113.379z" fill="#a8d7f4"/><path d="M441.39 224c62.62 0 113.38 50.76 113.38 113.39 0 62.62-50.76 113.379-113.38 113.379C378.76 450.77 328 400.01 328 337.39 328 274.76 378.76 224 441.39 224z" fill="#fbed24"/><path d="M122 114.77c-10.99-4.89-18.33-13.72-18.33-23.8 0-15.4 17.13-27.88 38.25-27.88 21.13 0 38.26 12.48 38.26 27.88 0 9.84-7 18.49-17.57 23.45-5.96 2.8-13.07 4.43-20.69 4.43-7.3 0-14.12-1.49-19.92-4.08z" fill="#c8c8c8"/><g fill="none" stroke="#231f20"><path stroke-width="21" d="M165.07 140.34h583.11v379.83H168.56M122 114.77c-10.99-4.89-18.33-13.72-18.33-23.8 0-15.4 17.13-27.88 38.25-27.88 21.13 0 38.26 12.48 38.26 27.88 0 9.84-7 18.49-17.57 23.45-5.96 2.8-13.07 4.43-20.69 4.43-7.3 0-14.12-1.49-19.92-4.08z"/><path stroke-width="21" d="M122 114v.77l1.12 670.61M162.61 112.6V785.38"/><path stroke-width="14" d="M744.76 179.39l3.42-1.93 2.01-1.14M554.77 337.39c0 62.62-50.76 113.379-113.38 113.379C378.76 450.77 328 400.01 328 337.39 328 274.76 378.76 224 441.39 224c62.62 0 113.38 50.76 113.38 113.39z"/></g><path fill="none" d="M0 0h850.394v850.394H0z"/></svg>
